svg/icon/pink.svg

<svg height="32" viewBox="0 0 32 32" width="32" xmlns="http://www.w3.org/2000/svg" xmlns:xlink="http://www.w3.org/1999/xlink"><defs><linearGradient id="a" x1="50%" x2="50%" y1="0%" y2="100%"><stop offset="0" stop-color="#fff" stop-opacity=".5"/><stop offset="1" stop-opacity=".5"/></linearGradient><circle id="b" cx="16" cy="15" r="15"/><filter id="c" height="111.7%" width="111.7%" x="-5.8%" y="-4.2%"><feOffset dy=".5" in="SourceAlpha" result="shadowOffsetOuter1"/><feGaussianBlur in="shadowOffsetOuter1" result="shadowBlurOuter1" stdDeviation=".5"/><feComposite in="shadowBlurOuter1" in2="SourceAlpha" operator="out" result="shadowBlurOuter1"/><feColorMatrix in="shadowBlurOuter1" values="0 0 0 0 0   0 0 0 0 0   0 0 0 0 0  0 0 0 0.199473505 0"/></filter><filter id="d" height="117.5%" width="120.6%" x="-10.3%" y="-6.2%"><feOffset dy=".5" in="SourceAlpha" result="shadowOffsetOuter1"/><feGaussianBlur in="shadowOffsetOuter1" result="shadowBlurOuter1" stdDeviation=".5"/><feColorMatrix in="shadowBlurOuter1" result="shadowMatrixOuter1" values="0 0 0 0 0   0 0 0 0 0   0 0 0 0 0  0 0 0 0.204257246 0"/><feMerge><feMergeNode in="shadowMatrixOuter1"/><feMergeNode in="SourceGraphic"/></feMerge></filter></defs><g fill="none" fill-rule="evenodd"><use fill="#000" filter="url(#c)" xlink:href="#b"/><use fill="#ed79aa" xlink:href="#b"/><use fill="url(#a)" xlink:href="#b"/><circle cx="16" cy="15" r="14.5" stroke="#000" stroke-opacity=".097"/><g fill="#fff" filter="url(#d)" transform="translate(6.5 5)"><path d="m16.9518413 2.92893219-1.8699046 1.8830561c-1.318455-1.32772798-3.1398835-2.14894481-5.15177797-2.14894481-3.91528098 0-7.10923417 3.11009265-7.27864712 7.01086642l-.00706717.00000314v7.12093666c-1.6412098-1.783765-2.64444444-4.1713243-2.64444444-6.7948497 0-5.5228475 4.4458835-10 9.93015873-10 2.74213757 0 5.22467727 1.11928813 7.02168257 2.92893219zm0 14.14213561c-1.7615714 1.773961-4.1819086 2.8845229-6.8597778 2.9276299v-2.663517c1.9475974-.0427624 3.706877-.8551491 4.9898732-2.147169z" opacity=".5"/><path d="m5.18095238 18.7843352v-9.11042216h.00728754c.14007942-2.60502899 2.28203203-4.67391304 4.90382358-4.67391304 2.7123318 0 4.9111111 2.2142439 4.9111111 4.94565217 0 2.73140823-2.1987793 4.94565213-4.9111111 4.94565213-.90568832 0-1.75411593-.2468865-2.48253969-.6774751v5.5116238c-.85821171-.2069157-1.67311829-.5260423-2.42857143-.9411178zm4.91111112-6.338683c1.3710688 0 2.4825397-1.1192882 2.4825397-2.50000003 0-1.38071187-1.1114709-2.5-2.4825397-2.5-1.37106882 0-2.48253969 1.11928813-2.48253969 2.5 0 1.38071183 1.11147087 2.50000003 2.48253969 2.50000003z"/></g></g></svg>

<svg xmlns="http://www.w3.org/2000/svg" xmlns:xlink="http://www.w3.org/1999/xlink" width="32" height="32" viewBox="0 0 32 32">
  <defs>
    <linearGradient id="pink-c" x1="50%" x2="50%" y1="0%" y2="100%">
      <stop offset="0%" stop-color="#FFF" stop-opacity=".5"/>
      <stop offset="100%" stop-opacity=".5"/>
    </linearGradient>
    <circle id="pink-b" cx="16" cy="15" r="15"/>
    <filter id="pink-a" width="111.7%" height="111.7%" x="-5.8%" y="-4.2%" filterUnits="objectBoundingBox">
      <feOffset dy=".5" in="SourceAlpha" result="shadowOffsetOuter1"/>
      <feGaussianBlur in="shadowOffsetOuter1" result="shadowBlurOuter1" stdDeviation=".5"/>
      <feComposite in="shadowBlurOuter1" in2="SourceAlpha" operator="out" result="shadowBlurOuter1"/>
      <feColorMatrix in="shadowBlurOuter1" values="0 0 0 0 0   0 0 0 0 0   0 0 0 0 0  0 0 0 0.199473505 0"/>
    </filter>
    <filter id="pink-d" width="120.6%" height="117.5%" x="-10.3%" y="-6.2%" filterUnits="objectBoundingBox">
      <feOffset dy=".5" in="SourceAlpha" result="shadowOffsetOuter1"/>
      <feGaussianBlur in="shadowOffsetOuter1" result="shadowBlurOuter1" stdDeviation=".5"/>
      <feColorMatrix in="shadowBlurOuter1" result="shadowMatrixOuter1" values="0 0 0 0 0   0 0 0 0 0   0 0 0 0 0  0 0 0 0.204257246 0"/>
      <feMerge>
        <feMergeNode in="shadowMatrixOuter1"/>
        <feMergeNode in="SourceGraphic"/>
      </feMerge>
    </filter>
  </defs>
  <g fill="none" fill-rule="evenodd">
    <use fill="#000" filter="url(#pink-a)" xlink:href="#pink-b"/>
    <use fill="#ED79AA" xlink:href="#pink-b"/>
    <use fill="url(#pink-c)" style="mix-blend-mode:soft-light" xlink:href="#pink-b"/>
    <circle cx="16" cy="15" r="14.5" stroke="#000" stroke-opacity=".097"/>
    <g fill="#FFF" filter="url(#pink-d)" transform="translate(6.5 5)">
      <path d="M16.9518413,2.92893219 L15.0819367,4.81198829 C13.7634817,3.48426031 11.9420532,2.66304348 9.93015873,2.66304348 C6.01487775,2.66304348 2.82092456,5.77313613 2.65151161,9.6739099 L2.64444444,9.67391304 L2.64444444,16.7948497 C1.00323464,15.0110847 0,12.6235254 0,10 C0,4.4771525 4.4458835,0 9.93015873,0 C12.6722963,0 15.154836,1.11928813 16.9518413,2.92893219 Z M16.9518413,17.0710678 C15.1902699,18.8450288 12.7699327,19.9555907 10.0920635,19.9986977 L10.0920635,17.3351807 C12.0396609,17.2924183 13.7989405,16.4800316 15.0819367,15.1880117 L16.9518413,17.0710678 Z" opacity=".5"/>
      <path d="M5.18095238,18.7843352 L5.18095238,9.67391304 L5.18823992,9.67391304 C5.32831934,7.06888405 7.47027195,5 10.0920635,5 C12.8043953,5 15.0031746,7.2142439 15.0031746,9.94565217 C15.0031746,12.6770604 12.8043953,14.8913043 10.0920635,14.8913043 C9.18637518,14.8913043 8.33794757,14.6444178 7.60952381,14.2138292 L7.60952381,19.725453 C6.7513121,19.5185373 5.93640552,19.1994107 5.18095238,18.7843352 Z M10.0920635,12.4456522 C11.4631323,12.4456522 12.5746032,11.326364 12.5746032,9.94565217 C12.5746032,8.5649403 11.4631323,7.44565217 10.0920635,7.44565217 C8.72099468,7.44565217 7.60952381,8.5649403 7.60952381,9.94565217 C7.60952381,11.326364 8.72099468,12.4456522 10.0920635,12.4456522 Z"/>
    </g>
  </g>
</svg>
